icons/diff-renamed-24.svg

<svg width="24" height="24" viewBox="0 0 24 24">
  <path
    d="M13.75 12.75V16.0966C13.75 16.326 14.0331 16.4343 14.1862 16.2635L17.8583 12.1669C17.9435 12.0719 17.9435 11.9281 17.8583 11.8332L14.1862 7.73659C14.0331 7.56579 13.75 7.67409 13.75 7.90346V11.25H6.75C6.33579 11.25 6 11.5858 6 12C6 12.4142 6.33579 12.75 6.75 12.75H13.75Z" />
  <path
    d="M2 3.75C2 2.7835 2.7835 2 3.75 2H20.25C21.2165 2 22 2.7835 22 3.75V20.25C22 21.2165 21.2165 22 20.25 22H3.75C2.7835 22 2 21.2165 2 20.25V3.75ZM3.75 3.5C3.61193 3.5 3.5 3.61193 3.5 3.75V20.25C3.5 20.3881 3.61193 20.5 3.75 20.5H20.25C20.3881 20.5 20.5 20.3881 20.5 20.25V3.75C20.5 3.61193 20.3881 3.5 20.25 3.5H3.75Z" />
</svg>

<svg xmlns="http://www.w3.org/2000/svg" width="24" height="24" viewBox="0 0 24 24"><path d="M13.75 12.75v3.347a.25.25 0 0 0 .436.166l3.672-4.096a.25.25 0 0 0 0-.334l-3.672-4.096a.25.25 0 0 0-.436.166v3.347h-7a.75.75 0 0 0 0 1.5h7Z"/><path d="M2 3.75C2 2.784 2.784 2 3.75 2h16.5c.966 0 1.75.784 1.75 1.75v16.5A1.75 1.75 0 0 1 20.25 22H3.75A1.75 1.75 0 0 1 2 20.25V3.75Zm1.75-.25a.25.25 0 0 0-.25.25v16.5c0 .138.112.25.25.25h16.5a.25.25 0 0 0 .25-.25V3.75a.25.25 0 0 0-.25-.25H3.75Z"/></svg>
